X:1
T:We're No Awa' Tae Bide Awa'
M:C
L:1/8
Q:80
C:
S:March
K:HP
{g}A3/2B/2 | \
{GdG}c3e{Gdc}dc{gBd}B{G}A | \
{gcd}c2{e}A2{GAG}A2{gcd}ce |
{ag}a4{GdG}ag{fg}fe | \
{gfg}f4{g}e2{g}f3/2g/2 | \
{ag}a2{GdG}a2{g}a3c |
{Gdc}d2f2{gef}e3{G}e | \
{gfg}f2e2{ag}a2c2 | \
{gBd}B4{G}A2 :|
